pkgs/tbo/tags/tbo-0.98~git20100623+2295523-0ubuntu1guada1/data/doodle/accesories/emotes/face-grin.svg

<?xml version="1.0" encoding="UTF-8" standalone="no"?>
<!-- Created with Inkscape (http://www.inkscape.org/) -->

<svg
   xmlns:svg="http://www.w3.org/2000/svg"
   xmlns="http://www.w3.org/2000/svg"
   xmlns:xlink="http://www.w3.org/1999/xlink"
   version="1.1"
   width="48"
   height="48"
   id="svg4376">
  <defs
     id="defs3">
    <linearGradient
       id="linearGradient2102">
      <stop
         id="stop2104"
         style="stop-color:#000000;stop-opacity:1"
         offset="0" />
      <stop
         id="stop2106"
         style="stop-color:#000000;stop-opacity:0"
         offset="1" />
    </linearGradient>
    <linearGradient
       id="linearGradient3290">
      <stop
         id="stop3292"
         style="stop-color:#fffcde;stop-opacity:1"
         offset="0" />
      <stop
         id="stop3294"
         style="stop-color:#f6e76a;stop-opacity:1"
         offset="0.64485979" />
      <stop
         id="stop3296"
         style="stop-color:#ffb738;stop-opacity:1"
         offset="1" />
    </linearGradient>
    <linearGradient
       id="linearGradient3068">
      <stop
         id="stop3070"
         style="stop-color:#cccccc;stop-opacity:1"
         offset="0" />
      <stop
         id="stop3076"
         style="stop-color:#ffffff;stop-opacity:1"
         offset="0.34579438" />
      <stop
         id="stop3078"
         style="stop-color:#ffffff;stop-opacity:1"
         offset="0.72486681" />
      <stop
         id="stop3072"
         style="stop-color:#cecece;stop-opacity:1"
         offset="1" />
    </linearGradient>
    <linearGradient
       id="linearGradient4565">
      <stop
         id="stop4567"
         style="stop-color:#000000;stop-opacity:1"
         offset="0" />
      <stop
         id="stop4569"
         style="stop-color:#000000;stop-opacity:0"
         offset="1" />
    </linearGradient>
    <radialGradient
       cx="24.714285"
       cy="38.57143"
       r="19.714285"
       fx="24.714285"
       fy="38.57143"
       id="radialGradient1360"
       xlink:href="#linearGradient4565"
       gradientUnits="userSpaceOnUse"
       gradientTransform="matrix(1,0,0,0.333333,0,25.71429)" />
    <radialGradient
       cx="29.288071"
       cy="15.720984"
       r="8.9020796"
       fx="29.158466"
       fy="15.755712"
       id="radialGradient1362"
       xlink:href="#linearGradient3290"
       gradientUnits="userSpaceOnUse" />
    <linearGradient
       x1="14"
       y1="21.0625"
       x2="14"
       y2="32.875"
       id="linearGradient2108"
       xlink:href="#linearGradient2102"
       gradientUnits="userSpaceOnUse"
       gradientTransform="matrix(1,0,0,1.033654,1.5,-0.627404)" />
    <linearGradient
       x1="14"
       y1="21.0625"
       x2="14"
       y2="34.305527"
       id="linearGradient2112"
       xlink:href="#linearGradient2102"
       gradientUnits="userSpaceOnUse"
       gradientTransform="matrix(1,0,0,1.404523,10.5,-7.966331)" />
    <linearGradient
       x1="14"
       y1="21.0625"
       x2="13.5"
       y2="33.42667"
       id="linearGradient2116"
       xlink:href="#linearGradient2102"
       gradientUnits="userSpaceOnUse"
       gradientTransform="matrix(1,0,0,1.171895,2.5,-3.141166)" />
    <linearGradient
       x1="14"
       y1="21.0625"
       x2="14.5"
       y2="33.431156"
       id="linearGradient2120"
       xlink:href="#linearGradient2102"
       gradientUnits="userSpaceOnUse"
       gradientTransform="matrix(1,0,0,1.159815,18.5,-2.815047)" />
    <linearGradient
       x1="14"
       y1="21.0625"
       x2="14"
       y2="35.744175"
       id="linearGradient2124"
       xlink:href="#linearGradient2102"
       gradientUnits="userSpaceOnUse"
       gradientTransform="matrix(1,0,0,1.071351,-22.5,-3.854623)" />
    <linearGradient
       x1="9.7892637"
       y1="29.629091"
       x2="38.390732"
       y2="29.629091"
       id="linearGradient2132"
       xlink:href="#linearGradient3068"
       gradientUnits="userSpaceOnUse"
       gradientTransform="matrix(1.048897,0,0,1,-1.267931,0)" />
  </defs>
  <g
     id="layer1">
    <path
       d="m 44.42857,38.57143 a 19.714285,6.5714288 0 1 1 -39.42857,0 19.714285,6.5714288 0 1 1 39.42857,0 z"
       id="path4563"
       style="opacity:0.53164559;color:#000000;fill:url(#radialGradient1360);fill-opacity:1;fill-rule:evenodd;stroke:none;stroke-width:0.40487173;marker:none;visibility:visible;display:inline;overflow:visible" />
    <path
       d="m 39.774755,19.008621 a 8.6620579,8.6620579 0 1 1 -17.324115,0 8.6620579,8.6620579 0 1 1 17.324115,0 z"
       transform="matrix(2.083142,0,0,2.083142,-40.54715,-16.49224)"
       id="path4320"
       style="color:#000000;fill:url(#radialGradient1362);fill-opacity:1;fill-rule:evenodd;stroke:#9c8c0a;stroke-width:0.48004404;stroke-linecap:round;stroke-linejoin:round;stroke-miterlimit:4;stroke-opacity:1;stroke-dasharray:none;stroke-dashoffset:0;marker:none;visibility:visible;display:inline;overflow:visible" />
    <path
       d="m 39.774755,19.008621 a 8.6620579,8.6620579 0 1 1 -17.324115,0 8.6620579,8.6620579 0 1 1 17.324115,0 z"
       transform="matrix(1.979782,0,0,1.979782,-37.33128,-14.52746)"
       id="path4322"
       style="opacity:0.67721522;color:#000000;fill:none;stroke:#ffffff;stroke-width:0.50510627;stroke-linecap:round;stroke-linejoin:round;stroke-miterlimit:4;stroke-opacity:1;stroke-dasharray:none;stroke-dashoffset:0;marker:none;visibility:visible;display:inline;overflow:visible" />
    <path
       d="M -0.875,1.875 A 2.9375,2.875 0 0 1 -6.3564497,3.3124999"
       transform="matrix(-0.965926,-0.258819,0.258819,-0.965926,24.53442,17.20131)"
       id="path1364"
       style="fill:none;stroke:#555753;stroke-width:1;stroke-linecap:butt;stroke-miterlimit:4;stroke-opacity:1;stroke-dasharray:none;stroke-dashoffset:0" />
    <path
       d="M -0.875,1.875 A 2.9375,2.875 0 0 1 -6.3564497,3.3124999"
       transform="matrix(-0.965926,-0.258819,0.258819,-0.965926,15.78442,17.20131)"
       id="path2094"
       style="fill:none;stroke:#555753;stroke-width:1;stroke-linecap:butt;stroke-miterlimit:4;stroke-opacity:1;stroke-dasharray:none;stroke-dashoffset:0" />
    <path
       d="m 9.1875355,21.044769 c -1.5389814,7.567378 4.6920355,17.167526 14.8511515,17.167526 10.247498,0 16.505528,-8.430424 14.72004,-17.105026 l -29.5711915,-0.0625 z"
       id="path2096"
       style="color:#000000;fill:url(#linearGradient2132);fill-opacity:1;fill-rule:nonzero;stroke:none;stroke-width:1.00000012;marker:none;visibility:visible;display:inline;overflow:visible" />
    <path
       d="m 24.5,21.528657 0,16.854279"
       id="path2110"
       style="opacity:0.18181817;fill:none;stroke:url(#linearGradient2112);stroke-width:0.99999988px;stroke-linecap:square;stroke-linejoin:miter;stroke-opacity:1" />
    <path
       d="m 16.5,21.468635 0,14.062746"
       id="path2114"
       style="opacity:0.18181817;fill:none;stroke:url(#linearGradient2116);stroke-width:1.00000024px;stroke-linecap:square;stroke-linejoin:miter;stroke-opacity:1" />
    <path
       d="m 32.5,21.541107 0,13.917802"
       id="path2118"
       style="opacity:0.18181817;fill:none;stroke:url(#linearGradient2120);stroke-width:1.00000048px;stroke-linecap:square;stroke-linejoin:miter;stroke-opacity:1" />
    <path
       d="m 9.4409398,20.615864 c -1.7806546,8.821926 5.1590122,18.087809 14.8090612,18.087809 10.003545,0 16.652216,-9.578383 14.371562,-18.150309 l -29.1806232,0.0625 z"
       id="path2756"
       style="color:#000000;fill:none;stroke:#8f5902;stroke-width:0.99999994;stroke-linecap:butt;stroke-linejoin:miter;stroke-miterlimit:4;stroke-opacity:1;stroke-dasharray:none;stroke-dashoffset:0;marker:none;visibility:visible;display:inline;overflow:visible" />
  </g>
</svg>

<?xml version="1.0" encoding="UTF-8" standalone="no"?>
<!-- Created with Inkscape (http://www.inkscape.org/) -->
<svg
   xmlns:dc="http://purl.org/dc/elements/1.1/"
   xmlns:cc="http://creativecommons.org/ns#"
   xmlns:rdf="http://www.w3.org/1999/02/22-rdf-syntax-ns#"
   xmlns:svg="http://www.w3.org/2000/svg"
   xmlns="http://www.w3.org/2000/svg"
   xmlns:xlink="http://www.w3.org/1999/xlink"
   xmlns:sodipodi="http://sodipodi.sourceforge.net/DTD/sodipodi-0.dtd"
   xmlns:inkscape="http://www.inkscape.org/namespaces/inkscape"
   width="48.000000px"
   height="48.000000px"
   id="svg4376"
   sodipodi:version="0.32"
   inkscape:version="0.46"
   sodipodi:docbase="/home/jimmac/src/cvs/tango-icon-theme/scalable/emotes"
   sodipodi:docname="face-grin.svg"
   inkscape:export-filename="/home/tigert/Desktop/face-grin.png"
   inkscape:export-xdpi="90.000000"
   inkscape:export-ydpi="90.000000"
   inkscape:output_extension="org.inkscape.output.svg.inkscape">
  <defs
     id="defs3">
    <inkscape:perspective
       sodipodi:type="inkscape:persp3d"
       inkscape:vp_x="0 : 24 : 1"
       inkscape:vp_y="0 : 1000 : 0"
       inkscape:vp_z="48 : 24 : 1"
       inkscape:persp3d-origin="24 : 16 : 1"
       id="perspective40" />
    <linearGradient
       id="linearGradient2102">
      <stop
         style="stop-color:#000000;stop-opacity:1;"
         offset="0"
         id="stop2104" />
      <stop
         style="stop-color:#000000;stop-opacity:0;"
         offset="1"
         id="stop2106" />
    </linearGradient>
    <linearGradient
       id="linearGradient3290">
      <stop
         style="stop-color:#fffcde;stop-opacity:1.0000000;"
         offset="0.0000000"
         id="stop3292" />
      <stop
         id="stop3294"
         offset="0.64485979"
         style="stop-color:#f6e76a;stop-opacity:1.0000000;" />
      <stop
         style="stop-color:#ffb738;stop-opacity:1.0000000;"
         offset="1.0000000"
         id="stop3296" />
    </linearGradient>
    <linearGradient
       id="linearGradient3068">
      <stop
         style="stop-color:#cccccc;stop-opacity:1.0000000;"
         offset="0.0000000"
         id="stop3070" />
      <stop
         id="stop3076"
         offset="0.34579438"
         style="stop-color:#ffffff;stop-opacity:1.0000000;" />
      <stop
         style="stop-color:#ffffff;stop-opacity:1.0000000;"
         offset="0.72486681"
         id="stop3078" />
      <stop
         style="stop-color:#cecece;stop-opacity:1.0000000;"
         offset="1.0000000"
         id="stop3072" />
    </linearGradient>
    <linearGradient
       inkscape:collect="always"
       id="linearGradient4565">
      <stop
         style="stop-color:#000000;stop-opacity:1;"
         offset="0"
         id="stop4567" />
      <stop
         style="stop-color:#000000;stop-opacity:0;"
         offset="1"
         id="stop4569" />
    </linearGradient>
    <radialGradient
       inkscape:collect="always"
       xlink:href="#linearGradient4565"
       id="radialGradient1360"
       gradientUnits="userSpaceOnUse"
       gradientTransform="matrix(1.000000,0.000000,0.000000,0.333333,0.000000,25.71429)"
       cx="24.714285"
       cy="38.571430"
       fx="24.714285"
       fy="38.571430"
       r="19.714285" />
    <radialGradient
       inkscape:collect="always"
       xlink:href="#linearGradient3290"
       id="radialGradient1362"
       gradientUnits="userSpaceOnUse"
       cx="29.288071"
       cy="15.720984"
       fx="29.158466"
       fy="15.755712"
       r="8.9020796" />
    <linearGradient
       inkscape:collect="always"
       xlink:href="#linearGradient2102"
       id="linearGradient2108"
       x1="14.000000"
       y1="21.062500"
       x2="14.000000"
       y2="32.875000"
       gradientUnits="userSpaceOnUse"
       gradientTransform="matrix(1.000000,0.000000,0.000000,1.033654,1.500000,-0.627404)" />
    <linearGradient
       inkscape:collect="always"
       xlink:href="#linearGradient2102"
       id="linearGradient2112"
       gradientUnits="userSpaceOnUse"
       x1="14.000000"
       y1="21.062500"
       x2="14"
       y2="34.305527"
       gradientTransform="matrix(1.000000,0.000000,0.000000,1.404523,10.50000,-7.966331)" />
    <linearGradient
       inkscape:collect="always"
       xlink:href="#linearGradient2102"
       id="linearGradient2116"
       gradientUnits="userSpaceOnUse"
       gradientTransform="matrix(1.000000,0.000000,0.000000,1.171895,2.500000,-3.141166)"
       x1="14.000000"
       y1="21.062500"
       x2="13.500000"
       y2="33.426670" />
    <linearGradient
       inkscape:collect="always"
       xlink:href="#linearGradient2102"
       id="linearGradient2120"
       gradientUnits="userSpaceOnUse"
       gradientTransform="matrix(1.000000,0.000000,0.000000,1.159815,18.50000,-2.815047)"
       x1="14.000000"
       y1="21.062500"
       x2="14.500000"
       y2="33.431156" />
    <linearGradient
       inkscape:collect="always"
       xlink:href="#linearGradient2102"
       id="linearGradient2124"
       gradientUnits="userSpaceOnUse"
       gradientTransform="matrix(1.000000,0.000000,0.000000,1.071351,-22.50000,-3.854623)"
       x1="14.000000"
       y1="21.062500"
       x2="14.000000"
       y2="35.744175" />
    <linearGradient
       inkscape:collect="always"
       xlink:href="#linearGradient3068"
       id="linearGradient2132"
       x1="9.7892637"
       y1="29.629091"
       x2="38.390732"
       y2="29.629091"
       gradientUnits="userSpaceOnUse"
       gradientTransform="matrix(1.048897,0.000000,0.000000,1.000000,-1.267931,0.000000)" />
  </defs>
  <sodipodi:namedview
     fill="#a40000"
     id="base"
     pagecolor="#ffffff"
     bordercolor="#666666"
     borderopacity="0.19607843"
     inkscape:pageopacity="0.0"
     inkscape:pageshadow="2"
     inkscape:zoom="1"
     inkscape:cx="-138.48588"
     inkscape:cy="28.588454"
     inkscape:current-layer="layer1"
     showgrid="false"
     inkscape:grid-bbox="true"
     inkscape:document-units="px"
     inkscape:showpageshadow="false"
     inkscape:window-width="1010"
     inkscape:window-height="818"
     inkscape:window-x="178"
     inkscape:window-y="30"
     stroke="#8f5902" />
  <metadata
     id="metadata4">
    <rdf:RDF>
      <cc:Work
         rdf:about="">
        <dc:format>image/svg+xml</dc:format>
        <dc:type
           rdf:resource="http://purl.org/dc/dcmitype/StillImage" />
        <dc:title>Face - Laughing</dc:title>
        <dc:subject>
          <rdf:Bag>
            <rdf:li>emoticon</rdf:li>
            <rdf:li>emote</rdf:li>
            <rdf:li>smiley</rdf:li>
            <rdf:li>laughing</rdf:li>
            <rdf:li>:-D</rdf:li>
            <rdf:li>:D</rdf:li>
          </rdf:Bag>
        </dc:subject>
        <cc:license
           rdf:resource="http://creativecommons.org/licenses/publicdomain/" />
        <dc:creator>
          <cc:Agent>
            <dc:title>Jakub Steiner</dc:title>
          </cc:Agent>
        </dc:creator>
        <dc:source>http://jimmac.musichall.cz</dc:source>
        <dc:contributor>
          <cc:Agent>
            <dc:title>Tuomas Kuosmanen</dc:title>
          </cc:Agent>
        </dc:contributor>
      </cc:Work>
      <cc:License
         rdf:about="http://creativecommons.org/licenses/publicdomain/">
        <cc:permits
           rdf:resource="http://creativecommons.org/ns#Reproduction" />
        <cc:permits
           rdf:resource="http://creativecommons.org/ns#Distribution" />
        <cc:permits
           rdf:resource="http://creativecommons.org/ns#DerivativeWorks" />
      </cc:License>
    </rdf:RDF>
  </metadata>
  <g
     id="layer1"
     inkscape:label="Layer 1"
     inkscape:groupmode="layer">
    <path
       sodipodi:type="arc"
       style="opacity:0.53164560;color:#000000;fill:url(#radialGradient1360);fill-opacity:1.0000000;fill-rule:evenodd;stroke:none;stroke-width:0.40487173;stroke-linecap:round;stroke-linejoin:round;marker:none;marker-start:none;marker-mid:none;marker-end:none;stroke-miterlimit:4.0000000;stroke-dasharray:none;stroke-dashoffset:0.0000000;stroke-opacity:1.0000000;visibility:visible;display:inline;overflow:visible"
       id="path4563"
       sodipodi:cx="24.714285"
       sodipodi:cy="38.571430"
       sodipodi:rx="19.714285"
       sodipodi:ry="6.5714288"
       d="M 44.428570 38.571430 A 19.714285 6.5714288 0 1 1  5.0000000,38.571430 A 19.714285 6.5714288 0 1 1  44.428570 38.571430 z" />
    <path
       sodipodi:type="arc"
       style="opacity:1.0000000;color:#000000;fill:url(#radialGradient1362);fill-opacity:1.0000000;fill-rule:evenodd;stroke:#9c8c0a;stroke-width:0.48004404;stroke-linecap:round;stroke-linejoin:round;marker:none;marker-start:none;marker-mid:none;marker-end:none;stroke-miterlimit:4.0000000;stroke-dasharray:none;stroke-dashoffset:0.0000000;stroke-opacity:1.0000000;visibility:visible;display:inline;overflow:visible"
       id="path4320"
       sodipodi:cx="31.112698"
       sodipodi:cy="19.008621"
       sodipodi:rx="8.6620579"
       sodipodi:ry="8.6620579"
       d="M 39.774755 19.008621 A 8.6620579 8.6620579 0 1 1  22.450640,19.008621 A 8.6620579 8.6620579 0 1 1  39.774755 19.008621 z"
       transform="matrix(2.083142,0.000000,0.000000,2.083142,-40.54715,-16.49224)" />
    <path
       d="M 39.774755 19.008621 A 8.6620579 8.6620579 0 1 1  22.450640,19.008621 A 8.6620579 8.6620579 0 1 1  39.774755 19.008621 z"
       sodipodi:ry="8.6620579"
       sodipodi:rx="8.6620579"
       sodipodi:cy="19.008621"
       sodipodi:cx="31.112698"
       id="path4322"
       style="opacity:0.67721522;color:#000000;fill:none;fill-opacity:1.0000000;fill-rule:evenodd;stroke:#ffffff;stroke-width:0.50510627;stroke-linecap:round;stroke-linejoin:round;marker:none;marker-start:none;marker-mid:none;marker-end:none;stroke-miterlimit:4.0000000;stroke-dasharray:none;stroke-dashoffset:0.0000000;stroke-opacity:1.0000000;visibility:visible;display:inline;overflow:visible"
       sodipodi:type="arc"
       transform="matrix(1.979782,0.000000,0.000000,1.979782,-37.33128,-14.52746)" />
    <path
       sodipodi:type="arc"
       style="fill:none;fill-opacity:1.0000000;stroke:#555753;stroke-width:1.0000000;stroke-linecap:butt;stroke-miterlimit:4.0000000;stroke-dasharray:none;stroke-dashoffset:0.0000000;stroke-opacity:1.0000000"
       id="path1364"
       sodipodi:cx="-3.8125000"
       sodipodi:cy="1.8750000"
       sodipodi:rx="2.9375000"
       sodipodi:ry="2.8750000"
       d="M -0.87500000,1.8750000 A 2.9375000,2.8750000 0 0 1 -6.3564497,3.3124999"
       sodipodi:start="0.0000000"
       sodipodi:end="2.6179939"
       sodipodi:open="true"
       transform="matrix(-0.965926,-0.258819,0.258819,-0.965926,24.53442,17.20131)" />
    <path
       transform="matrix(-0.965926,-0.258819,0.258819,-0.965926,15.78442,17.20131)"
       sodipodi:open="true"
       sodipodi:end="2.6179939"
       sodipodi:start="0.0000000"
       d="M -0.87500000,1.8750000 A 2.9375000,2.8750000 0 0 1 -6.3564497,3.3124999"
       sodipodi:ry="2.8750000"
       sodipodi:rx="2.9375000"
       sodipodi:cy="1.8750000"
       sodipodi:cx="-3.8125000"
       id="path2094"
       style="fill:none;fill-opacity:1.0000000;stroke:#555753;stroke-width:1.0000000;stroke-linecap:butt;stroke-miterlimit:4.0000000;stroke-dasharray:none;stroke-dashoffset:0.0000000;stroke-opacity:1.0000000"
       sodipodi:type="arc" />
    <path
       sodipodi:nodetypes="czcc"
       id="path2096"
       d="M 9.1875355,21.044769 C 7.6485541,28.612147 13.879571,38.212295 24.038687,38.212295 C 34.286185,38.212295 40.544215,29.781871 38.758727,21.107269 L 9.1875355,21.044769 z "
       style="opacity:1.0000000;color:#000000;fill:url(#linearGradient2132);fill-opacity:1.0000000;fill-rule:nonzero;stroke:none;stroke-width:1.0000001;stroke-linecap:butt;stroke-linejoin:miter;marker:none;marker-start:none;marker-mid:none;marker-end:none;stroke-miterlimit:4.0000000;stroke-dasharray:none;stroke-dashoffset:0.0000000;stroke-opacity:1.0000000;visibility:visible;display:inline;overflow:visible" />
    <path
       id="path2110"
       d="M 24.500000,21.528657 L 24.500000,38.382936"
       style="opacity:0.18181818;fill:none;fill-opacity:0.75000000;fill-rule:evenodd;stroke:url(#linearGradient2112);stroke-width:0.99999988px;stroke-linecap:square;stroke-linejoin:miter;stroke-opacity:1.0000000" />
    <path
       style="opacity:0.18181818;fill:none;fill-opacity:0.75000000;fill-rule:evenodd;stroke:url(#linearGradient2116);stroke-width:1.0000002px;stroke-linecap:square;stroke-linejoin:miter;stroke-opacity:1.0000000"
       d="M 16.500000,21.468635 L 16.500000,35.531381"
       id="path2114" />
    <path
       id="path2118"
       d="M 32.500000,21.541107 L 32.500000,35.458909"
       style="opacity:0.18181818;fill:none;fill-opacity:0.75000000;fill-rule:evenodd;stroke:url(#linearGradient2120);stroke-width:1.0000005px;stroke-linecap:square;stroke-linejoin:miter;stroke-opacity:1.0000000" />
    <path
       style="opacity:1.0000000;color:#000000;fill:none;fill-opacity:1.0000000;fill-rule:nonzero;stroke:#8f5902;stroke-width:0.99999994;stroke-linecap:butt;stroke-linejoin:miter;marker:none;marker-start:none;marker-mid:none;marker-end:none;stroke-miterlimit:4.0000000;stroke-dasharray:none;stroke-dashoffset:0.0000000;stroke-opacity:1.0000000;visibility:visible;display:inline;overflow:visible"
       d="M 9.4409398,20.615864 C 7.6602852,29.43779 14.599952,38.703673 24.250001,38.703673 C 34.253546,38.703673 40.902217,29.12529 38.621563,20.553364 L 9.4409398,20.615864 z "
       id="path2756"
       sodipodi:nodetypes="czcc" />
  </g>
</svg>
